packages/match-icons/sendgrid/svg/design.svg

<svg fill="none" height="32" viewBox="0 0 32 32" width="32" xmlns="http://www.w3.org/2000/svg"><g stroke="#394762" stroke-linecap="round" stroke-linejoin="round" stroke-width="1.7"><path d="m14.1919 23.82c2.1187-2.5333.1333-5.784 2.0173-7.9747.3113-.3786.6952-.6912 1.129-.9194s.9088-.3674 1.3972-.4094c.4883-.0421.9802.0139 1.4466.1647.4664.1507.898.3931 1.2694.713s.6752.7108.8934 1.1497.3465.917.3774 1.4062c.0308.4892-.0364.9796-.1978 1.4425-.1613.4628-.4136.8887-.7418 1.2527-.9036 1.1162-2.0702 1.9905-3.395 2.5446-1.3249.5541-2.7666.7706-4.1957.6301z"/><path d="m22.1599 16.3694 8.3093-11.00405c.2219-.30192.3789-.64646.4612-1.01198.0824-.36552.0882-.74412.0172-1.112-.071-.36789-.2173-.71712-.4297-1.02576-.2125-.30863-.4864-.57-.8047-.76768s-.674-.3274-1.0448-.38102-.7487-.02997-1.11.06946c-.3612.09943-.698.27249-.9892.5083-.2911.23582-.5304.52931-.7027.86202l-6.0386 12.16001"/><path d="m18 6.96533h-13c-1.06087 0-2.07828.42143-2.82843 1.17158-.75014.75014-1.17157 1.76756-1.17157 2.82839v16c0 1.0609.42143 2.0783 1.17157 2.8285.75015.7501 1.76756 1.1715 2.82843 1.1715h16c1.0609 0 2.0783-.4214 2.8284-1.1715.7502-.7502 1.1716-1.7676 1.1716-2.8285v-2"/></g></svg>

<svg width="32" height="32" viewBox="0 0 32 32" fill="none" xmlns="http://www.w3.org/2000/svg">
<path d="M14.1919 23.82C16.3106 21.2867 14.3252 18.036 16.2092 15.8453C16.5205 15.4667 16.9044 15.1541 17.3382 14.9259C17.772 14.6977 18.247 14.5585 18.7354 14.5165C19.2237 14.4744 19.7156 14.5304 20.182 14.6812C20.6484 14.8319 21.08 15.0743 21.4514 15.3942C21.8228 15.7141 22.1266 16.105 22.3448 16.5439C22.563 16.9828 22.6913 17.4609 22.7222 17.9501C22.753 18.4393 22.6858 18.9297 22.5244 19.3926C22.3631 19.8554 22.1108 20.2813 21.7826 20.6453C20.879 21.7615 19.7124 22.6358 18.3876 23.1899C17.0627 23.744 15.621 23.9605 14.1919 23.82V23.82Z" stroke="#394762" stroke-width="1.7" stroke-linecap="round" stroke-linejoin="round"/>
<path d="M22.1599 16.3694L30.4692 5.36535C30.6911 5.06343 30.8481 4.71889 30.9304 4.35337C31.0128 3.98785 31.0186 3.60925 30.9476 3.24137C30.8766 2.87348 30.7303 2.52425 30.5179 2.21561C30.3054 1.90698 30.0315 1.64561 29.7132 1.44793C29.3949 1.25025 29.0392 1.12053 28.6684 1.06691C28.2976 1.01329 27.9197 1.03694 27.5584 1.13637C27.1972 1.2358 26.8604 1.40886 26.5692 1.64467C26.2781 1.88049 26.0388 2.17398 25.8665 2.50669L19.8279 14.6667" stroke="#394762" stroke-width="1.7" stroke-linecap="round" stroke-linejoin="round"/>
<path d="M18 6.96533H5C3.93913 6.96533 2.92172 7.38676 2.17157 8.13691C1.42143 8.88705 1 9.90447 1 10.9653V26.9653C1 28.0262 1.42143 29.0436 2.17157 29.7938C2.92172 30.5439 3.93913 30.9653 5 30.9653H21C22.0609 30.9653 23.0783 30.5439 23.8284 29.7938C24.5786 29.0436 25 28.0262 25 26.9653V24.9653" stroke="#394762" stroke-width="1.7" stroke-linecap="round" stroke-linejoin="round"/>
</svg>
